Sources/FrostedUI/Resources/Icons.xcassets/unpin16.imageset/unpin-16.svg

<svg width="16" height="16" viewBox="0 0 16 16" fill="none" xmlns="http://www.w3.org/2000/svg" data-fui-icon="true">
  <path
    d="M1.21973 1.21973C1.51262 0.926861 1.98739 0.926843 2.28027 1.21973L14.7803 13.7197C15.0731 14.0126 15.0731 14.4874 14.7803 14.7803C14.4874 15.0732 14.0126 15.0731 13.7197 14.7803L11.0273 12.0879C10.9711 12.0316 10.8948 12 10.8152 12H9.05C8.88431 12 8.75 12.1343 8.75 12.3V14.25C8.75 14.6642 8.41414 14.9999 8 15C7.58584 14.9999 7.25 14.6642 7.25 14.25V12.3C7.25 12.1343 7.11569 12 6.95 12H4.25488C2.67581 11.9999 1.68938 10.2895 2.48047 8.92285L3.88965 6.48926C3.96172 6.36474 3.99993 6.22297 4 6.0791V5.18481C4 5.10525 3.96839 5.02894 3.91213 4.97268L1.21973 2.28027C0.926833 1.98738 0.926833 1.51262 1.21973 1.21973ZM9.9502 1C11.0822 1.00017 11.9999 1.91781 12 3.0498V6.0791C12.0001 6.22297 12.0383 6.36474 12.1104 6.48926L13.5195 8.92285C13.7318 9.28947 13.8153 9.68061 13.7941 10.0569C13.7814 10.2826 13.5137 10.3535 13.3539 10.1937L11.4058 8.24561C11.3873 8.22713 11.3713 8.20632 11.3582 8.18369L10.8125 7.24023C10.6082 6.88732 10.5001 6.48688 10.5 6.0791V3.0498C10.4999 2.74624 10.2537 2.50017 9.9502 2.5H6.0498C6.02489 2.50001 6.00035 2.50168 5.97629 2.5049C5.8357 2.52372 5.67821 2.51708 5.57791 2.41678L4.90877 1.74764C4.78701 1.62587 4.79172 1.42475 4.93601 1.33078C5.25658 1.122 5.6387 1.00006 6.0498 1H9.9502ZM5.85642 6.91697C5.68639 6.74693 5.38521 6.83563 5.28427 7.05388C5.25494 7.11728 5.22268 7.17947 5.1875 7.24023L3.77832 9.6748C3.56663 10.0413 3.83148 10.4999 4.25488 10.5H8.71519C8.98246 10.5 9.11631 10.1769 8.92732 9.98787L5.85642 6.91697Z"
    fill="currentColor"
  />
</svg>

<svg xmlns="http://www.w3.org/2000/svg" width="16" height="16" fill="none" data-fui-icon="true" viewBox="0 0 16 16"><path fill="currentColor" d="M1.22 1.22a.75.75 0 0 1 1.06 0l12.5 12.5a.75.75 0 0 1-1.06 1.06l-2.693-2.692a.3.3 0 0 0-.212-.088H9.05a.3.3 0 0 0-.3.3v1.95a.75.75 0 0 1-1.5 0V12.3a.3.3 0 0 0-.3-.3H4.255c-1.58 0-2.566-1.71-1.775-3.077l1.41-2.434A.8.8 0 0 0 4 6.08v-.894a.3.3 0 0 0-.088-.212L1.22 2.28a.75.75 0 0 1 0-1.06M9.95 1A2.05 2.05 0 0 1 12 3.05v3.03a.8.8 0 0 0 .11.41l1.41 2.433c.212.366.295.758.274 1.134-.013.226-.28.297-.44.137l-1.948-1.948a.3.3 0 0 1-.048-.062l-.546-.944a2.3 2.3 0 0 1-.312-1.16V3.05a.55.55 0 0 0-.55-.55h-3.9a1 1 0 0 0-.074.005c-.14.019-.298.012-.398-.088l-.67-.67c-.121-.121-.116-.322.028-.416.32-.209.703-.33 1.114-.331zM5.856 6.917c-.17-.17-.47-.081-.572.137q-.044.095-.096.186l-1.41 2.435a.55.55 0 0 0 .477.825h4.46a.3.3 0 0 0 .212-.512z"/></svg>
